images/service-1/responsibilities-3.svg

<svg width="75" height="75" viewBox="0 0 75 75" fill="none" xmlns="http://www.w3.org/2000/svg">
<path d="M9.375 7.03125C8.08242 7.03125 7.03125 8.08242 7.03125 9.375V65.625C7.03125 66.9176 8.08242 67.9688 9.375 67.9688H65.625C66.9176 67.9688 67.9688 66.9176 67.9688 65.625V9.375C67.9688 8.08242 66.9176 7.03125 65.625 7.03125H9.375ZM9.375 9.375H65.625L65.6273 65.625H9.375V9.375ZM16.4062 16.4062C15.1137 16.4062 14.0625 17.4574 14.0625 18.75V28.125C14.0625 29.4176 15.1137 30.4688 16.4062 30.4688H25.7812C27.0738 30.4688 28.125 29.4176 28.125 28.125V24.7055C28.125 24.0586 27.6 23.5336 26.9531 23.5336C26.3062 23.5336 25.7812 24.0586 25.7812 24.7055V28.125H16.4062V18.75H23.4375C24.0844 18.75 24.6094 18.225 24.6094 17.5781C24.6094 16.9312 24.0844 16.4062 23.4375 16.4062H16.4062ZM28.7109 16.9922C28.4112 16.9922 28.1115 17.1064 27.8824 17.3355L21.0938 24.1241L19.5786 22.6089C19.1203 22.1507 18.3797 22.1507 17.9214 22.6089C17.4632 23.0672 17.4632 23.8078 17.9214 24.2661L20.2652 26.6098C20.4937 26.8383 20.7937 26.9531 21.0938 26.9531C21.3938 26.9531 21.6938 26.8383 21.9223 26.6098L29.5395 18.9926C29.9977 18.5344 29.9977 17.7937 29.5395 17.3355C29.3104 17.1064 29.0106 16.9922 28.7109 16.9922ZM33.9844 18.75C33.3375 18.75 32.8125 19.275 32.8125 19.9219C32.8125 20.5688 33.3375 21.0938 33.9844 21.0938H59.7656C60.4125 21.0938 60.9375 20.5688 60.9375 19.9219C60.9375 19.275 60.4125 18.75 59.7656 18.75H33.9844ZM33.9844 23.4375C33.3375 23.4375 32.8125 23.9625 32.8125 24.6094C32.8125 25.2563 33.3375 25.7812 33.9844 25.7812H52.7344C53.3812 25.7812 53.9062 25.2563 53.9062 24.6094C53.9062 23.9625 53.3812 23.4375 52.7344 23.4375H33.9844ZM16.4062 37.5C15.1137 37.5 14.0625 38.5512 14.0625 39.8438V49.2188C14.0625 50.5113 15.1137 51.5625 16.4062 51.5625H25.7812C27.0738 51.5625 28.125 50.5113 28.125 49.2188V45.7993C28.125 45.1524 27.6 44.6274 26.9531 44.6274C26.3062 44.6274 25.7812 45.1524 25.7812 45.7993V49.2188H16.4062V39.8438H23.4375C24.0844 39.8438 24.6094 39.3187 24.6094 38.6719C24.6094 38.025 24.0844 37.5 23.4375 37.5H16.4062ZM28.7109 38.0859C28.4112 38.0859 28.1115 38.2002 27.8824 38.4293L21.0938 45.2179L19.5786 43.7027C19.1203 43.2445 18.3797 43.2445 17.9214 43.7027C17.4632 44.1609 17.4632 44.9016 17.9214 45.3598L20.2652 47.7036C20.4937 47.9321 20.7937 48.0469 21.0938 48.0469C21.3938 48.0469 21.6938 47.9321 21.9223 47.7036L29.5395 40.0864C29.9977 39.6282 29.9977 38.8875 29.5395 38.4293C29.3104 38.2002 29.0106 38.0859 28.7109 38.0859ZM33.9844 39.8438C33.3375 39.8438 32.8125 40.3688 32.8125 41.0156C32.8125 41.6625 33.3375 42.1875 33.9844 42.1875H45.7031C46.35 42.1875 46.875 41.6625 46.875 41.0156C46.875 40.3688 46.35 39.8438 45.7031 39.8438H33.9844ZM50.3906 39.8438C49.7438 39.8438 49.2188 40.3688 49.2188 41.0156C49.2188 41.6625 49.7438 42.1875 50.3906 42.1875H59.7656C60.4125 42.1875 60.9375 41.6625 60.9375 41.0156C60.9375 40.3688 60.4125 39.8438 59.7656 39.8438H50.3906ZM33.9844 44.5312C33.3375 44.5312 32.8125 45.0563 32.8125 45.7031C32.8125 46.35 33.3375 46.875 33.9844 46.875H43.3594C44.0062 46.875 44.5312 46.35 44.5312 45.7031C44.5312 45.0563 44.0062 44.5312 43.3594 44.5312H33.9844ZM14.0625 58.5938C13.4156 58.5938 12.8906 59.1188 12.8906 59.7656V62.1094C12.8906 62.7562 13.4156 63.2812 14.0625 63.2812C14.7094 63.2812 15.2344 62.7562 15.2344 62.1094V59.7656C15.2344 59.1188 14.7094 58.5938 14.0625 58.5938ZM19.9219 58.5938C19.275 58.5938 18.75 59.1188 18.75 59.7656V62.1094C18.75 62.7562 19.275 63.2812 19.9219 63.2812C20.5688 63.2812 21.0938 62.7562 21.0938 62.1094V59.7656C21.0938 59.1188 20.5688 58.5938 19.9219 58.5938ZM25.7812 58.5938C25.1344 58.5938 24.6094 59.1188 24.6094 59.7656V62.1094C24.6094 62.7562 25.1344 63.2812 25.7812 63.2812C26.4281 63.2812 26.9531 62.7562 26.9531 62.1094V59.7656C26.9531 59.1188 26.4281 58.5938 25.7812 58.5938ZM31.6406 58.5938C30.9937 58.5938 30.4688 59.1188 30.4688 59.7656V62.1094C30.4688 62.7562 30.9937 63.2812 31.6406 63.2812C32.2875 63.2812 32.8125 62.7562 32.8125 62.1094V59.7656C32.8125 59.1188 32.2875 58.5938 31.6406 58.5938ZM37.5 58.5938C36.8531 58.5938 36.3281 59.1188 36.3281 59.7656V62.1094C36.3281 62.7562 36.8531 63.2812 37.5 63.2812C38.1469 63.2812 38.6719 62.7562 38.6719 62.1094V59.7656C38.6719 59.1188 38.1469 58.5938 37.5 58.5938ZM43.3594 58.5938C42.7125 58.5938 42.1875 59.1188 42.1875 59.7656V62.1094C42.1875 62.7562 42.7125 63.2812 43.3594 63.2812C44.0062 63.2812 44.5312 62.7562 44.5312 62.1094V59.7656C44.5312 59.1188 44.0062 58.5938 43.3594 58.5938ZM49.2188 58.5938C48.5719 58.5938 48.0469 59.1188 48.0469 59.7656V62.1094C48.0469 62.7562 48.5719 63.2812 49.2188 63.2812C49.8656 63.2812 50.3906 62.7562 50.3906 62.1094V59.7656C50.3906 59.1188 49.8656 58.5938 49.2188 58.5938ZM55.0781 58.5938C54.4313 58.5938 53.9062 59.1188 53.9062 59.7656V62.1094C53.9062 62.7562 54.4313 63.2812 55.0781 63.2812C55.725 63.2812 56.25 62.7562 56.25 62.1094V59.7656C56.25 59.1188 55.725 58.5938 55.0781 58.5938ZM60.9375 58.5938C60.2906 58.5938 59.7656 59.1188 59.7656 59.7656V62.1094C59.7656 62.7562 60.2906 63.2812 60.9375 63.2812C61.5844 63.2812 62.1094 62.7562 62.1094 62.1094V59.7656C62.1094 59.1188 61.5844 58.5938 60.9375 58.5938Z" fill="#E4B564"/>
</svg>

<svg width="75" height="75" fill="none" xmlns="http://www.w3.org/2000/svg"><path d="M9.375 7.031a2.346 2.346 0 00-2.344 2.344v56.25a2.346 2.346 0 002.344 2.344h56.25a2.346 2.346 0 002.344-2.344V9.375a2.346 2.346 0 00-2.344-2.344H9.375zm0 2.344h56.25l.002 56.25H9.375V9.375zm7.031 7.031a2.346 2.346 0 00-2.343 2.344v9.375a2.346 2.346 0 002.343 2.344h9.375a2.346 2.346 0 002.344-2.344v-3.42a1.172 1.172 0 00-2.344 0v3.42h-9.375V18.75h7.032a1.172 1.172 0 000-2.344h-7.032zm12.305.586c-.3 0-.6.114-.829.343l-6.788 6.79-1.515-1.516a1.17 1.17 0 10-1.658 1.657l2.344 2.344a1.169 1.169 0 001.657 0l7.617-7.617a1.17 1.17 0 00-.828-2zm5.273 1.758a1.172 1.172 0 000 2.344h25.782a1.172 1.172 0 000-2.344H33.984zm0 4.688a1.172 1.172 0 000 2.343h18.75a1.172 1.172 0 000-2.343h-18.75zM16.406 37.5a2.346 2.346 0 00-2.343 2.344v9.375a2.346 2.346 0 002.343 2.343h9.375a2.346 2.346 0 002.344-2.343v-3.42a1.172 1.172 0 00-2.344 0v3.42h-9.375v-9.375h7.032a1.172 1.172 0 000-2.344h-7.032zm12.305.586c-.3 0-.6.114-.829.343l-6.788 6.789-1.515-1.515a1.17 1.17 0 10-1.658 1.657l2.344 2.344a1.169 1.169 0 001.657 0l7.617-7.618a1.17 1.17 0 00-.828-2zm5.273 1.758a1.172 1.172 0 000 2.343h11.72a1.172 1.172 0 000-2.343h-11.72zm16.407 0a1.172 1.172 0 000 2.343h9.375a1.172 1.172 0 000-2.343H50.39zM33.984 44.53a1.172 1.172 0 000 2.344h9.375a1.172 1.172 0 000-2.344h-9.375zM14.062 58.594c-.646 0-1.171.525-1.171 1.172v2.343a1.172 1.172 0 002.343 0v-2.343c0-.647-.525-1.172-1.171-1.172zm5.86 0c-.647 0-1.172.525-1.172 1.172v2.343a1.172 1.172 0 002.344 0v-2.343c0-.647-.525-1.172-1.172-1.172zm5.86 0c-.648 0-1.173.525-1.173 1.172v2.343a1.172 1.172 0 002.344 0v-2.343c0-.647-.525-1.172-1.172-1.172zm5.859 0c-.647 0-1.172.525-1.172 1.172v2.343a1.172 1.172 0 002.343 0v-2.343c0-.647-.524-1.172-1.171-1.172zm5.859 0c-.647 0-1.172.525-1.172 1.172v2.343a1.172 1.172 0 002.344 0v-2.343c0-.647-.525-1.172-1.172-1.172zm5.86 0c-.648 0-1.172.525-1.172 1.172v2.343a1.172 1.172 0 002.343 0v-2.343c0-.647-.525-1.172-1.172-1.172zm5.859 0c-.647 0-1.172.525-1.172 1.172v2.343a1.172 1.172 0 002.344 0v-2.343c0-.647-.525-1.172-1.172-1.172zm5.86 0c-.648 0-1.173.525-1.173 1.172v2.343a1.172 1.172 0 002.344 0v-2.343c0-.647-.525-1.172-1.172-1.172zm5.858 0c-.646 0-1.171.525-1.171 1.172v2.343a1.172 1.172 0 002.343 0v-2.343c0-.647-.525-1.172-1.172-1.172z" fill="#E4B564"/></svg>
